X: 33
T:Country Farmer
M:4/4
L:1/8
K:F
F2|cBcd c2 BA|B2 G2 A2 c2|fefg f2 e2|d4 c2 F2|cBcd c2 BA|B2 G2 A2 c2| fefg f2 e2|d4 c2:|
|:c2|gfga g2 ab|a2 gf g2 ab|a2 gf g2 fe|defg e2 Bc| f2 ef d2 ef|g2 fg e2 fg|a2 ga fgab|g4 f4:|

